assets/svg/icon-ui-storage-white.svg

<?xml version="1.0" encoding="UTF-8" standalone="no"?>
<svg width="29px" height="31px" viewBox="0 0 29 31" version="1.1" xmlns="http://www.w3.org/2000/svg" xmlns:xlink="http://www.w3.org/1999/xlink">
    <!-- Generator: Sketch 3.8.3 (29802) - http://www.bohemiancoding.com/sketch -->
    <title>white/icon-ui-storage-white</title>
    <desc>Created with Sketch.</desc>
    <defs></defs>
    <g id="white" stroke="none" stroke-width="1" fill="none" fill-rule="evenodd">
        <g id="icons,-utility-white" transform="translate(-738.000000, -633.000000)" fill="#FFFFFF">
            <g id="white/icon-ui-storage-white" transform="translate(738.000000, 633.000000)">
                <g id="DBs">
                    <g id="PaaS">
                        <g id="eip_v.1.1_2015-06-06_Kris">
                            <g id="Features">
                                <g id="Prod-List">
                                    <g id="Storage">
                                        <g id="DBs">
                                            <g id="Fill-140-+-Fill-141-+-Fill-143">
                                                <path d="M14.0952,25.4183274 C8.3925,25.3935848 2.7,23.9752408 0,21.2720235 L0,24.7237918 C0,28.101681 6.3246,30.8428834 14.4,30.8780805 C22.4754,30.8428834 28.8,28.101681 28.8,24.7237918 L28.8,20.5607606 C26.7,23.7267693 20.2869,25.3914939 14.0952,25.4183274" id="Fill-140"></path>
                                                <path d="M24.5352,9.00979499 C21.9513,10.0880152 18.4914,10.8215813 14.7921,10.8215813 L14.7816,10.8215813 L14.7711,10.8215813 C11.0721,10.8215813 7.6122,10.0880152 5.0283,9.00979499 C2.5116,7.95945376 1.6185,6.68573206 1.6185,5.99363595 C1.6185,5.30153984 2.5116,4.14909179 5.0283,3.09875056 C7.6122,2.02053034 11.0721,1.41241971 14.7711,1.41241971 L14.7816,1.41241971 L14.7921,1.41241971 C18.4914,1.41241971 21.9513,1.99718168 24.5352,3.0754019 C27.0519,4.12539464 27.9447,5.34858565 27.9447,6.04068176 C27.9447,6.73242939 27.0519,7.95945376 24.5352,9.00979499 M14.4,0 C6.5001,0.00453033707 0.3,2.6722019 0,5.96645394 L0,11.2442966 C0,14.6221856 6.3246,17.363388 14.4,17.3985853 C22.4754,17.363388 28.8,14.6221856 28.8,11.2442966 L28.8,5.96645394 C28.8,2.6722019 22.2999,0.00453033707 14.4,0" id="Fill-141"></path>
                                                <path d="M0,14.2879862 L0,17.8359371 C0,21.2138261 6.3246,23.9550285 14.4,23.9902258 C22.4754,23.9550285 28.8,21.2138261 28.8,17.8359371 L28.8,14.2879862 C26.4,17.2048262 20.3319,18.7371256 14.3952,18.7629138 C8.466,18.7371256 2.7,17.2051747 0,14.2879862" id="Fill-142"></path>
                                            </g>
                                        </g>
                                    </g>
                                </g>
                            </g>
                        </g>
                    </g>
                </g>
            </g>
        </g>
    </g>
</svg>

<svg width="29" height="31" viewBox="0 0 29 31" xmlns="http://www.w3.org/2000/svg"><title>white/icon-ui-storage-white</title><g fill="#FFF" fill-rule="evenodd"><path d="M14.095 25.418C8.392 25.394 2.7 23.975 0 21.272v3.452c0 3.378 6.325 6.119 14.4 6.154 8.075-.035 14.4-2.776 14.4-6.154V20.56c-2.1 3.166-8.513 4.83-14.705 4.857M24.535 9.01c-2.584 1.078-6.044 1.812-9.743 1.812h-.02c-3.7 0-7.16-.734-9.744-1.812-2.516-1.05-3.41-2.324-3.41-3.016 0-.692.894-1.845 3.41-2.895 2.584-1.078 6.044-1.687 9.743-1.687H14.792c3.7 0 7.16.585 9.743 1.663 2.517 1.05 3.41 2.274 3.41 2.966 0 .691-.893 1.918-3.41 2.969M14.4 0C6.5.005.3 2.672 0 5.966v5.278c0 3.378 6.325 6.12 14.4 6.155 8.075-.036 14.4-2.777 14.4-6.155V5.966C28.8 2.672 22.3.005 14.4 0"/><path d="M0 14.288v3.548c0 3.378 6.325 6.119 14.4 6.154 8.075-.035 14.4-2.776 14.4-6.154v-3.548c-2.4 2.917-8.468 4.45-14.405 4.475C8.466 18.737 2.7 17.205 0 14.288"/></g></svg>
